X: 532
T: Nellie's Polka
C: Bert Murray
R: polka, shottish
B: Bert Murray's "Bon Accord Collection" 1999 p.53
%
Z: 2011 John Chambers <jc:trillian.mit.edu>
M: 2/4
L: 1/16
K: G
(uB,>C) |\
"G"D2B,>D G2D>G | "G"B2B2 B2(B>c) | "G"d>BG>D B,>DC>B, | "C"C6 (A,>B,) |
"Am"C2A,>C E2C>E | "Am"A2A2 A2(A>G) | "D7"F>GE>F D>EC>D | "G"B,6 (B,>C) |
"G"D2B,>D G2D>G | "G"B2B2 B2(B>c) | "G"d>BG>D B,>DG>F | "Am"E6 (A>B) |
"D7"c>dc>B A>BA>G | "D7"F>GF>E D2(F>E) | "D7"D/D/D D>D E2F2 | "G"G6 ||
(G>A) |\
"G"B2d2 G2G>A | "G"B2d2 G2G>A | "G"B>BB>B A2B2 | "C"c6 (A>B) |
"D7"c2c>B A2A>G | "D7"F2F>E D2F>E | "D7"D>DD>D G2A2 | "G"B6 (G>A) |
"G"B2d2 G2(G>A) | "G"B2d2 G2(G>A) | "G"B>BB>B A2G2 | "Am"E6 (A>B) |
"D7"c>dc>B A>BA>G | "D7"F>GF>E D2(F>E) | "D7"D/D/D D>D E2F2 | "G"G6 |]
